humanity-icon-theme/Humanity/actions/48/view-restore.svg

<?xml version="1.0" encoding="UTF-8" standalone="no"?>
<!-- Created with Inkscape (http://www.inkscape.org/) -->

<svg
   xmlns:svg="http://www.w3.org/2000/svg"
   xmlns="http://www.w3.org/2000/svg"
   xmlns:xlink="http://www.w3.org/1999/xlink"
   version="1.1"
   width="48"
   height="48"
   id="svg3082">
  <defs
     id="defs3084">
    <linearGradient
       id="linearGradient5060">
      <stop
         id="stop5062"
         style="stop-color:black;stop-opacity:1"
         offset="0" />
      <stop
         id="stop5064"
         style="stop-color:black;stop-opacity:0"
         offset="1" />
    </linearGradient>
    <linearGradient
       id="linearGradient5048">
      <stop
         id="stop5050"
         style="stop-color:black;stop-opacity:0"
         offset="0" />
      <stop
         id="stop5056"
         style="stop-color:black;stop-opacity:1"
         offset="0.5" />
      <stop
         id="stop5052"
         style="stop-color:black;stop-opacity:0"
         offset="1" />
    </linearGradient>
    <linearGradient
       id="linearGradient6388">
      <stop
         id="stop6390"
         style="stop-color:#73a300;stop-opacity:1"
         offset="0" />
      <stop
         id="stop6392"
         style="stop-color:#428300;stop-opacity:0"
         offset="1" />
    </linearGradient>
    <linearGradient
       id="linearGradient6457">
      <stop
         id="stop6459"
         style="stop-color:white;stop-opacity:0.94117647"
         offset="0" />
      <stop
         id="stop6461"
         style="stop-color:white;stop-opacity:0.70588237"
         offset="1" />
    </linearGradient>
    <linearGradient
       id="linearGradient2781">
      <stop
         id="stop2783"
         style="stop-color:#505050;stop-opacity:1"
         offset="0" />
      <stop
         id="stop6301"
         style="stop-color:#6e6e6e;stop-opacity:1"
         offset="0.13216467" />
      <stop
         id="stop2785"
         style="stop-color:#8c8c8c;stop-opacity:1"
         offset="1" />
    </linearGradient>
    <linearGradient
       id="linearGradient3690">
      <stop
         id="stop3692"
         style="stop-color:white;stop-opacity:1"
         offset="0" />
      <stop
         id="stop3694"
         style="stop-color:white;stop-opacity:0.46875"
         offset="1" />
    </linearGradient>
    <linearGradient
       id="linearGradient4168">
      <stop
         id="stop4170"
         style="stop-color:#f8cd70;stop-opacity:1"
         offset="0" />
      <stop
         id="stop4172"
         style="stop-color:#cc9110;stop-opacity:1"
         offset="1" />
    </linearGradient>
    <linearGradient
       x1="302.85715"
       y1="366.64789"
       x2="302.85715"
       y2="609.50507"
       id="linearGradient6658"
       xlink:href="#linearGradient5048"
       gradientUnits="userSpaceOnUse"
       gradientTransform="matrix(2.774389,0,0,1.969706,-1892.179,-872.8854)" />
    <radialGradient
       cx="605.71429"
       cy="486.64789"
       r="117.14286"
       fx="605.71429"
       fy="486.64789"
       id="radialGradient6660"
       xlink:href="#linearGradient5060"
       gradientUnits="userSpaceOnUse"
       gradientTransform="matrix(2.774389,0,0,1.969706,-1891.633,-872.8854)" />
    <radialGradient
       cx="605.71429"
       cy="486.64789"
       r="117.14286"
       fx="605.71429"
       fy="486.64789"
       id="radialGradient6662"
       xlink:href="#linearGradient5060"
       gradientUnits="userSpaceOnUse"
       gradientTransform="matrix(-2.774389,0,0,1.969706,112.7623,-872.8854)" />
    <linearGradient
       x1="7.5"
       y1="37.25"
       x2="15.088835"
       y2="29.93261"
       id="linearGradient5528"
       xlink:href="#linearGradient6388"
       gradientUnits="userSpaceOnUse"
       gradientTransform="matrix(-1,0,0,-1,26,67)" />
    <linearGradient
       x1="40.5"
       y1="37.5"
       x2="32.73439"
       y2="29.786163"
       id="linearGradient5531"
       xlink:href="#linearGradient6388"
       gradientUnits="userSpaceOnUse"
       gradientTransform="matrix(-1,0,0,-1,70,67)" />
    <linearGradient
       x1="7.375"
       y1="15.000398"
       x2="14.979"
       y2="23.156176"
       id="linearGradient5534"
       xlink:href="#linearGradient6388"
       gradientUnits="userSpaceOnUse"
       gradientTransform="matrix(-1,0,0,-1,26,39.000398)" />
    <linearGradient
       x1="40.875"
       y1="15.125"
       x2="32.999554"
       y2="22.963835"
       id="linearGradient5537"
       xlink:href="#linearGradient6388"
       gradientUnits="userSpaceOnUse"
       gradientTransform="matrix(-1,0,0,-1,70,39)" />
    <radialGradient
       cx="40.128311"
       cy="9.9661751"
       r="1.0606601"
       fx="40.128311"
       fy="9.9661751"
       id="radialGradient5540"
       xlink:href="#linearGradient4168"
       gradientUnits="userSpaceOnUse"
       gradientTransform="matrix(1.8725485,2.2105273e-6,-2.2597131e-6,1.9142139,-42.642187,-9.5774808)" />
    <radialGradient
       cx="40.128311"
       cy="9.9661751"
       r="1.0606601"
       fx="40.128311"
       fy="9.9661751"
       id="radialGradient5543"
       xlink:href="#linearGradient4168"
       gradientUnits="userSpaceOnUse"
       gradientTransform="matrix(1.8725485,2.2597147e-6,-2.2597134e-6,1.8725473,-38.642187,-9.1622254)" />
    <radialGradient
       cx="40.128311"
       cy="9.9661751"
       r="1.0606601"
       fx="40.128311"
       fy="9.9661751"
       id="radialGradient5546"
       xlink:href="#linearGradient4168"
       gradientUnits="userSpaceOnUse"
       gradientTransform="matrix(1.8725485,-1.5977564e-7,1.5266511e-7,1.789214,-34.642211,-8.3316134)" />
    <linearGradient
       x1="24"
       y1="13"
       x2="24"
       y2="40"
       id="linearGradient5549"
       xlink:href="#linearGradient6457"
       gradientUnits="userSpaceOnUse" />
    <linearGradient
       x1="16.033964"
       y1="9.0734701"
       x2="16.075121"
       y2="15.044087"
       id="linearGradient5552"
       xlink:href="#linearGradient3690"
       gradientUnits="userSpaceOnUse"
       gradientTransform="matrix(1.2580595,0,0,1.1724083,-7.4514896,-4.6378127)" />
    <linearGradient
       x1="21.866402"
       y1="8.5763302"
       x2="21.780495"
       y2="39.923653"
       id="linearGradient5555"
       xlink:href="#linearGradient2781"
       gradientUnits="userSpaceOnUse"
       gradientTransform="matrix(1.2424188,0,0,1.1803241,-7.060495,-5.1228486)" />
  </defs>
  <g
     id="g6304">
    <g
       transform="matrix(0.02167025,0,0,0.01254292,43.274286,39.390183)"
       id="g5022"
       style="opacity:0.58730164;display:inline">
      <rect
         width="1339.6335"
         height="478.35718"
         x="-1559.2523"
         y="-150.69685"
         id="rect4173"
         style="opacity:0.40206185;fill:url(#linearGradient6658);fill-opacity:1;fill-rule:nonzero;stroke:none;stroke-width:1;marker:none;visibility:visible;display:inline;overflow:visible" />
      <path
         d="m -219.61876,-150.68038 c 0,0 0,478.33079 0,478.33079 142.874166,0.90045 345.40022,-107.16966 345.40014,-239.196175 0,-132.026537 -159.436816,-239.134595 -345.40014,-239.134615 z"
         id="path5058"
         style="opacity:0.40206185;fill:url(#radialGradient6660);fill-opacity:1;fill-rule:nonzero;stroke:none;stroke-width:1;marker:none;visibility:visible;display:inline;overflow:visible" />
      <path
         d="m -1559.2523,-150.68038 c 0,0 0,478.33079 0,478.33079 -142.8742,0.90045 -345.4002,-107.16966 -345.4002,-239.196175 0,-132.026537 159.4368,-239.134595 345.4002,-239.134615 z"
         id="path5018"
         style="opacity:0.40206185;fill:url(#radialGradient6662);fill-opacity:1;fill-rule:nonzero;stroke:none;stroke-width:1;marker:none;visibility:visible;display:inline;overflow:visible" />
    </g>
    <rect
       width="40.999866"
       height="35.999866"
       rx="2"
       ry="2"
       x="3.5000663"
       y="5.5000672"
       id="rect1887"
       style="fill:url(#linearGradient5555);fill-opacity:1;stroke:#565853;stroke-width:1.0001328;stroke-miterlimit:4;stroke-opacity:1;stroke-dasharray:none" />
    <rect
       width="38.999851"
       height="33.999851"
       rx="1"
       ry="1"
       x="4.5000749"
       y="6.5000739"
       id="rect2779"
       style="opacity:0.2;fill:none;stroke:url(#linearGradient5552);stroke-width:1.00014973;stroke-miterlimit:4;stroke-opacity:1;stroke-dasharray:none" />
    <rect
       width="38"
       height="27"
       rx="1"
       ry="1"
       x="5"
       y="13"
       id="rect6287"
       style="fill:url(#linearGradient5549);fill-opacity:1;stroke:none" />
    <path
       d="m 42,9.5000004 c 3.59e-4,0.8286816 -0.671319,1.5006516 -1.5,1.5006516 -0.828681,0 -1.500359,-0.67197 -1.5,-1.5006516 -3.59e-4,-0.8286815 0.671319,-1.5006513 1.5,-1.5006513 0.828681,0 1.500359,0.6719698 1.5,1.5006513 l 0,0 z"
       id="path6289"
       style="fill:url(#radialGradient5546);fill-opacity:1;stroke:none" />
    <path
       d="m 38,9.5 c 3.59e-4,0.828681 -0.671319,1.500651 -1.5,1.500651 -0.828681,0 -1.500359,-0.67197 -1.5,-1.500651 -3.59e-4,-0.8286815 0.671319,-1.5006513 1.5,-1.5006513 0.828681,0 1.500359,0.6719698 1.5,1.5006513 l 0,0 z"
       id="path6291"
       style="fill:url(#radialGradient5543);fill-opacity:1;stroke:none" />
    <path
       d="m 34,9.5 c 3.59e-4,0.828681 -0.671319,1.500651 -1.5,1.500651 -0.828681,0 -1.500359,-0.67197 -1.5,-1.500651 -3.59e-4,-0.8286815 0.671319,-1.5006513 1.5,-1.5006513 0.828681,0 1.500359,0.6719698 1.5,1.5006513 l 0,0 z"
       id="path6293"
       style="fill:url(#radialGradient5540);fill-opacity:1;stroke:none" />
    <path
       d="M 35.071068,23.585787 33.656854,22.171573 38.606602,17.221825 35.778175,14.393398 30.828427,19.343146 29.414213,17.928932 28,25 35.071068,23.585787 z"
       id="rect5590"
       style="fill:url(#linearGradient5537);fill-opacity:1;stroke:none" />
    <path
       d="m 12.928932,23.585787 1.414214,-1.414214 -4.949748,-4.949748 2.828427,-2.828427 4.949748,4.949748 1.414214,-1.414214 L 20,25 12.928932,23.585787 z"
       id="path6366"
       style="fill:url(#linearGradient5534);fill-opacity:1;stroke:none" />
    <path
       d="m 35.071068,29.414213 -1.414214,1.414214 4.949748,4.949748 -2.828427,2.828427 -4.949748,-4.949748 -1.414214,1.414214 L 28,28 l 7.071068,1.414213 z"
       id="path6368"
       style="fill:url(#linearGradient5531);fill-opacity:1;stroke:none" />
    <path
       d="m 12.928932,29.414213 1.414214,1.414214 -4.949748,4.949748 2.828427,2.828427 4.949748,-4.949748 1.414214,1.414214 L 20,28 12.928932,29.414213 z"
       id="path6370"
       style="fill:url(#linearGradient5528);fill-opacity:1;stroke:none" />
  </g>
</svg>

<?xml version="1.0" encoding="UTF-8" standalone="no"?>
<!-- Created with Inkscape (http://www.inkscape.org/) -->
<svg id="svg3082" xmlns="http://www.w3.org/2000/svg" height="48" width="48" version="1.1" xmlns:xlink="http://www.w3.org/1999/xlink">
 <defs id="defs3084">
  <linearGradient id="linearGradient5060">
   <stop id="stop5062" offset="0"/>
   <stop id="stop5064" style="stop-opacity:0" offset="1"/>
  </linearGradient>
  <linearGradient id="linearGradient6388">
   <stop id="stop6390" style="stop-color:#73a300" offset="0"/>
   <stop id="stop6392" style="stop-color:#428300;stop-opacity:0" offset="1"/>
  </linearGradient>
  <linearGradient id="linearGradient4168">
   <stop id="stop4170" style="stop-color:#f8cd70" offset="0"/>
   <stop id="stop4172" style="stop-color:#cc9110" offset="1"/>
  </linearGradient>
  <linearGradient id="linearGradient6658" y2="609.51" gradientUnits="userSpaceOnUse" x2="302.86" gradientTransform="matrix(2.7744 0 0 1.9697 -1892.2 -872.89)" y1="366.65" x1="302.86">
   <stop id="stop5050" style="stop-opacity:0" offset="0"/>
   <stop id="stop5056" offset=".5"/>
   <stop id="stop5052" style="stop-opacity:0" offset="1"/>
  </linearGradient>
  <radialGradient id="radialGradient6660" xlink:href="#linearGradient5060" gradientUnits="userSpaceOnUse" cy="486.65" cx="605.71" gradientTransform="matrix(2.7744 0 0 1.9697 -1891.6 -872.89)" r="117.14"/>
  <radialGradient id="radialGradient6662" xlink:href="#linearGradient5060" gradientUnits="userSpaceOnUse" cy="486.65" cx="605.71" gradientTransform="matrix(-2.7744 0 0 1.9697 112.76 -872.89)" r="117.14"/>
  <linearGradient id="linearGradient5528" y2="29.933" xlink:href="#linearGradient6388" gradientUnits="userSpaceOnUse" x2="15.089" gradientTransform="matrix(-1,0,0,-1,26,67)" y1="37.25" x1="7.5"/>
  <linearGradient id="linearGradient5531" y2="29.786" xlink:href="#linearGradient6388" gradientUnits="userSpaceOnUse" x2="32.734" gradientTransform="matrix(-1,0,0,-1,70,67)" y1="37.5" x1="40.5"/>
  <linearGradient id="linearGradient5534" y2="23.156" xlink:href="#linearGradient6388" gradientUnits="userSpaceOnUse" x2="14.979" gradientTransform="matrix(-1 0 0 -1 26 39)" y1="15" x1="7.375"/>
  <linearGradient id="linearGradient5537" y2="22.964" xlink:href="#linearGradient6388" gradientUnits="userSpaceOnUse" x2="33" gradientTransform="matrix(-1,0,0,-1,70,39)" y1="15.125" x1="40.875"/>
  <radialGradient id="radialGradient5540" xlink:href="#linearGradient4168" gradientUnits="userSpaceOnUse" cy="9.9662" cx="40.128" gradientTransform="matrix(1.8725 .0000022105 -.0000022597 1.9142 -42.642 -9.5775)" r="1.0607"/>
  <radialGradient id="radialGradient5543" xlink:href="#linearGradient4168" gradientUnits="userSpaceOnUse" cy="9.9662" cx="40.128" gradientTransform="matrix(1.8725 .0000022597 -.0000022597 1.8725 -38.642 -9.1622)" r="1.0607"/>
  <radialGradient id="radialGradient5546" xlink:href="#linearGradient4168" gradientUnits="userSpaceOnUse" cy="9.9662" cx="40.128" gradientTransform="matrix(1.8725 -1.5978e-7 1.5267e-7 1.7892 -34.642 -8.3316)" r="1.0607"/>
  <linearGradient id="linearGradient5549" y2="40" gradientUnits="userSpaceOnUse" x2="24" y1="13" x1="24">
   <stop id="stop6459" style="stop-color:#fff;stop-opacity:.94118" offset="0"/>
   <stop id="stop6461" style="stop-color:#fff;stop-opacity:.70588" offset="1"/>
  </linearGradient>
  <linearGradient id="linearGradient5552" y2="15.044" gradientUnits="userSpaceOnUse" x2="16.075" gradientTransform="matrix(1.2581 0 0 1.1724 -7.4515 -4.6378)" y1="9.0735" x1="16.034">
   <stop id="stop3692" style="stop-color:#fff" offset="0"/>
   <stop id="stop3694" style="stop-color:#fff;stop-opacity:.46875" offset="1"/>
  </linearGradient>
  <linearGradient id="linearGradient5555" y2="39.924" gradientUnits="userSpaceOnUse" x2="21.78" gradientTransform="matrix(1.2424 0 0 1.1803 -7.0605 -5.1228)" y1="8.5763" x1="21.866">
   <stop id="stop2783" style="stop-color:#505050" offset="0"/>
   <stop id="stop6301" style="stop-color:#6e6e6e" offset=".13216"/>
   <stop id="stop2785" style="stop-color:#8c8c8c" offset="1"/>
  </linearGradient>
 </defs>
 <g id="g6304">
  <g id="g5022" style="opacity:.58730" transform="matrix(.021670 0 0 .012543 43.274 39.39)">
   <rect id="rect4173" style="opacity:.40206;fill:url(#linearGradient6658)" height="478.36" width="1339.6" y="-150.7" x="-1559.3"/>
   <path id="path5058" style="opacity:.40206;fill:url(#radialGradient6660)" d="m-219.62-150.68v478.33c142.87 0.90045 345.4-107.17 345.4-239.2s-159.44-239.13-345.4-239.13z"/>
   <path id="path5018" style="opacity:.40206;fill:url(#radialGradient6662)" d="m-1559.3-150.68v478.33c-142.87 0.90045-345.4-107.17-345.4-239.2s159.44-239.13 345.4-239.13z"/>
  </g>
  <rect id="rect1887" style="stroke:#565853;stroke-width:1.0001;fill:url(#linearGradient5555)" rx="2" ry="2" height="36" width="41" y="5.5001" x="3.5001"/>
  <rect id="rect2779" style="opacity:.2;stroke:url(#linearGradient5552);stroke-width:1.0001;fill:none" rx="1" ry="1" height="34" width="39" y="6.5001" x="4.5001"/>
  <rect id="rect6287" style="fill:url(#linearGradient5549)" rx="1" ry="1" height="27" width="38" y="13" x="5"/>
  <path id="path6289" style="fill:url(#radialGradient5546)" d="m42 9.5c0.000359 0.82868-0.67132 1.5007-1.5 1.5007s-1.5004-0.67197-1.5-1.5007c-0.000359-0.82868 0.67132-1.5007 1.5-1.5007s1.5004 0.67197 1.5 1.5007z"/>
  <path id="path6291" style="fill:url(#radialGradient5543)" d="m38 9.5c0.000359 0.82868-0.67132 1.5007-1.5 1.5007s-1.5004-0.67197-1.5-1.5007c-0.000359-0.82868 0.67132-1.5007 1.5-1.5007s1.5004 0.67197 1.5 1.5007z"/>
  <path id="path6293" style="fill:url(#radialGradient5540)" d="m34 9.5c0.000359 0.82868-0.67132 1.5007-1.5 1.5007s-1.5004-0.67197-1.5-1.5007c-0.000359-0.82868 0.67132-1.5007 1.5-1.5007s1.5004 0.67197 1.5 1.5007z"/>
  <path id="rect5590" style="fill:url(#linearGradient5537)" d="m35.071 23.586-1.414-1.414 4.95-4.95-2.829-2.829-4.95 4.95-1.414-1.414-1.414 7.071 7.071-1.414z"/>
  <path id="path6366" style="fill:url(#linearGradient5534)" d="m12.929 23.586 1.4142-1.4142-4.9497-4.9497 2.8284-2.8284 4.9497 4.9497 1.4142-1.4142l1.414 7.07-7.071-1.414z"/>
  <path id="path6368" style="fill:url(#linearGradient5531)" d="m35.071 29.414-1.4142 1.4142 4.9497 4.9497-2.8284 2.8284-4.9497-4.9497-1.4142 1.4142l-1.415-7.07 7.0711 1.4142z"/>
  <path id="path6370" style="fill:url(#linearGradient5528)" d="m12.929 29.414 1.4142 1.4142-4.9497 4.9497 2.8284 2.8284 4.9497-4.9497 1.4142 1.4142l1.414-7.07-7.071 1.414z"/>
 </g>
</svg>
